tools/download-figma-icons/icons/solid/smart-lightning.svg

<svg width="24" height="24" viewBox="0 0 24 24" fill="none" xmlns="http://www.w3.org/2000/svg">
<path fill-rule="evenodd" clip-rule="evenodd" d="M12.7126 9.73572C12.9001 9.73572 13.0951 9.65997 13.2451 9.50997C13.5376 9.21747 13.5301 8.74498 13.2376 8.45247L11.7376 6.97497C11.4451 6.68997 10.9726 6.68997 10.6801 6.97497L9.71261 7.93497L8.73761 6.97497C8.44511 6.68997 7.97261 6.68997 7.68011 6.97497L6.18011 8.45247C5.88686 8.74498 5.88011 9.21747 6.17261 9.50997C6.46511 9.80997 6.93761 9.80997 7.23761 9.52572L8.21261 8.56497L8.96261 9.30747V17.25C8.96261 17.6625 9.29186 18 9.71261 18C10.1251 18 10.4626 17.6625 10.4626 17.25V9.30072L11.2126 8.56497L12.1801 9.52572C12.3301 9.66747 12.5176 9.73572 12.7126 9.73572ZM11.9626 20.25H7.46262V19.5H11.9626V20.25ZM8.21263 22.5H11.2126C11.6694 22.5 11.9169 22.1325 11.9476 21.75H7.47013C7.50013 22.1325 7.74763 22.5 8.21263 22.5ZM15.5851 2.42325C15.9076 2.745 16.2076 3.09 16.4701 3.45825C15.5101 4.8825 15.0001 6.52575 15.0001 8.25C15.0001 9.9675 15.5101 11.6107 16.4626 13.035C15.9819 13.7407 15.4194 14.4075 14.8269 15.0833C13.9194 16.095 13.4626 16.7325 13.4626 17.4007V21.6757C13.4626 22.98 12.4726 24 11.2126 24H8.21262C6.94512 24 5.96262 22.98 5.96262 21.6757V17.4007C5.96262 16.665 5.49012 15.9908 4.67262 15.0675C2.94012 13.1108 1.50012 11.2432 1.50012 8.23575C1.50012 6.0375 2.36262 3.9675 3.91512 2.415C5.47512 0.86325 7.54437 0 9.75012 0C11.9551 0 14.0251 0.86325 15.5851 2.42325ZM19.5 13.8753C19.3215 13.8753 19.1422 13.8123 18.999 13.6833C17.388 12.2365 16.5 10.3075 16.5 8.25026C16.5 6.19301 17.388 4.26401 18.999 2.81726C19.3065 2.53976 19.7805 2.56526 20.058 2.87426C20.3347 3.18251 20.3092 3.65651 20.001 3.93326C18.7102 5.09126 18 6.62426 18 8.25026C18 9.87626 18.7102 11.4093 20.001 12.5673C20.3092 12.844 20.3347 13.318 20.058 13.6263C19.9102 13.7913 19.7047 13.8753 19.5 13.8753ZM21.7492 12.0002C21.5805 12.0002 21.4117 11.944 21.2715 11.8285C20.1292 10.882 19.5 9.61074 19.5 8.25024C19.5 6.88974 20.1292 5.61849 21.2715 4.67199C21.5902 4.40724 22.0627 4.45299 22.3275 4.77174C22.5915 5.09049 22.5472 5.56374 22.2285 5.82849C21.4357 6.48474 21 7.34424 21 8.25024C21 9.15624 21.4357 10.0157 22.2285 10.672C22.5472 10.9367 22.5915 11.41 22.3275 11.7287C22.179 11.908 21.9652 12.0002 21.7492 12.0002Z" fill="black"/>
</svg>

<svg xmlns="http://www.w3.org/2000/svg" width="24" height="24" fill="none" viewBox="0 0 24 24"><path fill="currentColor" fill-rule="evenodd" d="M12.713 9.736a.76.76 0 0 0 .532-.226.747.747 0 0 0-.007-1.058l-1.5-1.477a.76.76 0 0 0-1.058 0l-.967.96-.975-.96a.76.76 0 0 0-1.058 0l-1.5 1.477a.746.746 0 0 0-.007 1.058c.292.3.765.3 1.065.016l.975-.961.75.742v7.943c0 .413.329.75.75.75.412 0 .75-.337.75-.75V9.3l.75-.735.967.96c.15.142.338.21.533.21m-.75 10.514h-4.5v-.75h4.5zm-3.75 2.25h3c.456 0 .704-.367.735-.75H7.47c.03.383.278.75.743.75m7.372-20.077c.323.322.623.667.885 1.035A8.5 8.5 0 0 0 15 8.25c0 1.717.51 3.36 1.463 4.785-.481.706-1.044 1.373-1.636 2.048-.908 1.012-1.364 1.65-1.364 2.318v4.275c0 1.304-.99 2.324-2.25 2.324h-3c-1.268 0-2.25-1.02-2.25-2.324V17.4c0-.736-.473-1.41-1.29-2.333C2.94 13.11 1.5 11.243 1.5 8.236c0-2.199.863-4.269 2.415-5.821A8.22 8.22 0 0 1 9.75 0a8.2 8.2 0 0 1 5.835 2.423M19.5 13.875a.75.75 0 0 1-.501-.192C17.388 12.236 16.5 10.307 16.5 8.25s.888-3.986 2.499-5.433a.75.75 0 1 1 1.002 1.116C18.711 5.091 18 6.624 18 8.25s.71 3.16 2.001 4.317a.75.75 0 0 1-.501 1.308M21.75 12a.75.75 0 0 1-.479-.171C20.13 10.882 19.5 9.61 19.5 8.25s.63-2.632 1.771-3.578a.75.75 0 1 1 .957 1.156C21.437 6.485 21 7.344 21 8.25s.436 1.766 1.229 2.422a.751.751 0 0 1-.48 1.328" clip-rule="evenodd"/></svg>
